@S0 = { battle_prerendered.flac }

A t150 @S0
A o4c16r16r16r2.r16
A r16r16r16r2.r16
A r16r16r16r16r16r2r8.
A r16r16r16r16r16r2r8.
A r16r16r16r16r16r2r8.
A r16r8.r16r8.r16r8.r16r8.
A r16r8.r16r8.r16r4..
A r16r8.r16r8.r16r4..
A r16r8.r16r8.r16r4..
A r16r8.r16r8.r16r4..
