@S0 = { special_prerendered.flac }

A t220 @S0
A o5c8r4.r8r4.
A r8r4.r8r8r4
A r8r4.r8r4.
A r8r4.r8r4.
A r8r4r8r8r4.
A r8r4.r8r4.
A r8r8r8r8r8r8r8r8
A r8r4.r8r8r4
A r8r4r8r8r4.
A r8r4.r8r4.
A r8r8r8r8r8r8r8r8
