@VAS0 = { 0 }
@VAS1 = { 90 0 }
@PO0 = { -8 -40 }

A t150
A @TYPE0
A o6c8>a16r16a8b16r16b8<c16r16c8r4
A >a16r16a8b16r16<c8r4.
A >b8g16r16g8a16r16a8b16r16b8r4
A g16r16g8a16r16b8r4.
A a8f16r16f8g16r16g8a16r16a8b4
A f16r16f8g16r16g8a16r16a8r4
A g16r16g8a16r16a8b16r16b8<d4
A >g16r16g8a16r16a8b16r16b8<c8

B t150
B @TYPE1 @VAS0
B o8c16r16c16r16c16r16c16r16c16r16c16r16c16r16c16c16
B c16r16c16r16c16r16c16r16c16r16c16r16c16r16c16r16
B c16r16c16r16c16r16c16r16c16r16c16r16c16r16c16c16
B c16r16c16r16c16r16c16r16c16r16c16r16c16r16c16r16
B c16r16c16r16c16r16c16r16c16r16c16r16c16r16c16c16
B c16r16c16r16c16r16c16r16c16r16c16r16c16r16c16r16
B c16r16c16r16c16r16c16r16c16r16c16r16c16r16c16c16
B c16r16c16r16c16r16c16r16c16r16c16r16c16r16c16r16
B @VAS0

C t150
C v180 @TYPE0 @VAS1 @PO0
C o3
C c8r8c8r8c8r8c8r8
C c8r8c8c8c8r8c8r8
C c8r8c8r8c8r8c8r8
C c8r8c8c8c8r8c8r8
C c8r8c8r8c8r8c8r8
C c8r8c8c8c8r8c8r8
C c8r8c8r8c8r8c8r8
C c8r8c8c8c8c8c8c8
C @PO0 @VAS1

D t150
D v180 @TYPE2 @VAS1 @PO0
D o3c8r8c8r8c8r8c8r8
D c8r8c8c8c8r8c8r8
D c8r8c8r8c8r8c8r8
D c8r8c8c8c8r8c8r8
D c8r8c8r8c8r8c8r8
D c8r8c8c8c8r8c8r8
D c8r8c8r8c8r8c8r8
D c8r8c8c8c8c8c8c8
D @PO0 @VAS1

E t150
E v180 @TYPE3 @VAS1 @PO0
E o4c8r8c8r8c8r8c8r8
E c8r8c8c8c8r8c8r8
E c8r8c8r8c8r8c8r8
E c8r8c8c8c8r8c8r8
E c8r8c8r8c8r8c8r8
E c8r8c8c8c8r8c8r8
E c8r8c8r8c8r8c8r8
E c8r8c8c8c8c8c8c8
E @PO0 @VAS1
